X: 21262
T: Keep The Old Ark Rolling
R: reel
M: 4/4
K: Cmajor
G2 GA GFEF|GccB c2 cd|egge dfed|c>ed>c A>Bc>A|
G2 GA GFEF|GccB c2 cd|egge dfed|c4 c4|
G2 GA GFEF|GccB c2 cd|egge dfed|c>ed>c A>Bc>A|
G2 GA GFEF|GccB c2 cd|egge dfed|c2 CB cdef||
gece gege|fefg a2 gf|egge dfed|cedc ABcA|
G2 GA GFEF|GccB c2 cd|egge dfed|c2 cB cdef|
gece gege|fefg a2 gf|egge dfed|cedc ABcA|
G2 GA GFEF|GccB c2 cd|egge dfed|c4 c4||

